X:131
T:Walking the Floor
C:Traditional
R:jig
N:Suggested tune for It's nae Bother
B:RSCDS "A Second Book of Graded Scottish Country Dances" (Graded 2) p.27 #13
Z:2011 John Chambers <jc:trillian.mit.edu>
M:6/8
L:1/8
K:Ador
e |\
"Am"AGA e2d | efg "D7"edB | "G"GFG d2B | Gge dBG |\
"Am"AGA e2d | efg "D7"edB | "G"GFG edB | BAG "Am"A2 :|
|: e |\
"Am"aga e2d | gee "D7"edB | "G"gfg e2B | Gge dBG |\
"Am"aga e2d | gee "D7"edB | "G"GFG edB | BAG "Am"A2 :|
